!!!OTL: Ngoma Kurila
!!!XEN: A Lament
!!!CNT: African -- sub-Saharan -- Venda
!!!AMT: irregular
**kern
*k[f#]
*M4/4
*MM[ad lib.]
=1
16b
16b
8a
4g
2r
=2
16b
16b
8a
4g
4r
8r
8g
=3
8b
8g
8a
(8e
16g)
(16g
8e)
4d
=4
2r
4r
8ee
8ee
=5
2dd
4g;
8ee
8ee
=6
2dd
2g;
=7
4e
4g
4g
4e
=8
4d
8e
8e
4g
4r
=9
4e
4g
4g
4e
=10
4d
8e
8e
4g
4g
*M3/4
=11
4dd
4b
4b-
=12
4a
4g
8a
8e
=13
8g
[8g
4g]
8r
8d
=14
8fn
8e
4e
4r
=15
4dd
4b
4b-
=16
4a
4e
8a
8e
=17
8g
[8g
4g]
8r
8g
=18
8d
8d
4d
4r
=19
4dd
4b
4b-
=20
4a
4g
8a
8e
=21
8g
[8g
4g]
8r
8d
=22
8fn
8e
4e
4r
=23
4dd
4b
4b-
=24
4a
4e
8a
8e
=25
8g
[8g
4g]
8r
8g
=26
8d
8d
4d
4r
=27
2.r
=28
4e
4e
(8e
8B)
=29
2d
8r
8B
=30
4e
4e
4r
=31
2.r
=32
4e
4e
(8e
8B)
=33
2d
8r
8B
=34
4e
4e
4r
=35
2.r
4e
4e
8e
8B
=36
8d
4.d
8r
8B
=37
4e
4e
4r
=38
2.r
=39
4e
4e
8e
8B
=40
8d
4.d
8r
8B
=41
4e
4e
4r
=42
2.r
4e
4e
8e
8B
=43
8d
4.d
8r
8B
=44
4e
4e
4r
=45
2.r
=46
4e
4e
8e
8B
=47
8d
4.d
8r
8B
=48
4e
4e
4r
==
*-
!!!OPR: Miriam Makeba, "The World of African Song"
!!!PPP: Chicago
!!!PPR: Quadrangle Press (12 East Delaware Place)
!!!PDT: 1971///
!!!PPG: 42
!!!ENC: David Huron
!!!EMD: 1998/9/29/ Paul von Hippel updated this file in the following ways:
!!!EMD:  (1) changed the representation of slurs from curly braces to parentheses 
!!!EMD:  (2) changed freeform comments into reference records and tandem interpretations
!!!EMD:  (3) changed final barline from triple (===) to double (==)
!!!EMD:  (4) added key signature from printed source
!!!EEV: Version 2.0
